X: 10
T:Salmon Tails (2)
T:Rattling Bog
M:2/4
L:1/8
Q:200
N:A music only
Z:Brian Martin <brian_martin12345@yahoo.com> Winterbourn Downs Morris  (rcvd Jan 2003)
K:G
A | B2 B>A | GE E2 | DG G/F/G/A/ | BA A2 | B2 B>A | GE E2 | Dd d>c |1 BA G :| "last time"BA G2 |]
